X: 187
T: Hark, Hark, My Soul!
C: Words: Frederick W. Faber, 1854.  Arranged and alt. by Mike Hosken, 2014.
C: Music: 'Finlandia' Jean Sibelius, 1899.  Setting: from Jean Sibelius, 1900.
C: SSAATTBB arrangement: Claude Sonnet 4.6, 2026.
C: copyright: public domain.
M: 4/4
L: 1/4
%%staves [(1 2) (3 4) (5 6) (7 8)]
V:1 name="Soprano I"   clef=treble
V:2 name="Soprano II"  clef=treble
V:3 name="Alto I"      clef=treble
V:4 name="Alto II"     clef=treble
V:5 name="Tenor I"     clef=treble middle=B3 transpose=-12
V:6 name="Tenor II"    clef=treble middle=B3 transpose=-12
V:7 name="Baritone"    clef=bass
V:8 name="Bass I"      clef=bass
K: F
%
% Texture: SSAA only (pickup–bar 2); T1+T2 enter bar 3; Bar+B1 enter bar 5.
%
% --- SOPRANO I: original soprano, accidentals freely permitted ---
[V:1] [Q:1/4=100] A G A | B3 A | G A F3/2 G/ | (G A3- | A) A G A | B3 \
A | G A F3/2 G/ | A4- | A c c c | d3 A | A c c3/2 G/ | (G B3- | \
B) B A G | A3 F | F G G3/2 A/ | A4- | A c c c | d3 A | A c c3/2 G/ | (G B3- | \
B) B A G | A3 !sintro!F | F G G3/2 F/ | F4- | F !eintro!|]
%
% --- SOPRANO II: diatonic third below S1 ---
[V:2] F E F | G3 F | E F D3/2 E/ | (E F3- | F) F E F | G3 \
F | E F D3/2 E/ | F4- | F A A A | B3 F | F A A3/2 E/ | (E G3- | \
G) G F E | F3 D | D E E3/2 F/ | F4- | F A A A | B3 F | F A A3/2 E/ | (E G3- | \
G) G F E | F3 D | D E E3/2 D/ | D4- | C |]
%
% --- ALTO I: diatonic third below S2 ---
[V:3] D C D | E3 D | C D B,3/2 C/ | (C D3- | D) D C D | E3 \
D | C D B,3/2 C/ | D4- | D F F F | G3 D | D F F3/2 C/ | (C E3- | \
E) E D C | D3 B, | B, C C3/2 D/ | D4- | D F F F | G3 D | D F F3/2 C/ | (C E3- | \
E) E D C | D3 B, | B, C C3/2 B,/ | B,4- | A, |]
%
% --- ALTO II: diatonic third below A1 ---
[V:4] B, A, B, | C3 B, | A, B, G,3/2 A,/ | (A, B,3- | B,) B, A, B, | C3 \
B, | A, B, G,3/2 A,/ | B,4- | B, D D D | E3 B, | B, D D3/2 A,/ | (A, C3- | \
C) C B, A, | B,3 G, | G, A, A,3/2 B,/ | B,4- | B, D D D | E3 B, | B, D D3/2 A,/ | (A, C3- | \
C) C B, A, | B,3 G, | G, A, A,3/2 G,/ | G,4- | F, |]
%
% --- TENOR I: original tenor (^C→C diatonic), 8vb treble; enters bar 3 ---
[V:5] z3 | z4 | z4 | C4- | C C B, C | D3 C | B, C B,3/2 C/ | C4- | \
C A, A, A, | A,3 D | D C C3/2 C/ | (C D3- | D) D C D | C3 C | \
D D D3/2 D/ | C4- | C C A, A, | A,3 D | D C C3/2 C/ | (C D3- | \
D) D C D | C3 A, | B, B, B,3/2 B,/ | A,4- | C |]
%
% --- TENOR II: diatonic third below T1, 8vb treble; enters bar 3 ---
[V:6] z3 | z4 | z4 | A,4- | A, A, G, A, | B,3 A, | G, A, G,3/2 A,/ | A,4- | \
A, G, G, G, | G,3 B, | B, A, A,3/2 A,/ | (A, B,3- | B,) B, A, B, | A,3 A, | \
B, B, B,3/2 B,/ | A,4- | A, A, G, G, | G,3 B, | B, A, A,3/2 A,/ | (A, B,3- | \
B,) B, A, B, | A,3 G, | G, G, G,3/2 G,/ | G,4- | A, |]
%
% --- BARITONE: diatonic third above B1, bass clef; enters bar 5 ---
[V:7] z3 | z4 | z4 | z4 | z4 | \
A,3 A, | A, A, A,3/2 G,/ | A,4- | \
A, A, A, G, | F,3 F, | F, C, C,3/2 E,/ | (E, A,3- | \
A,) A, G, F, | G, G, G, A, | C C C3/2 C/ | C4- | \
C) B, A, G, | F,3 F, | F, C, C,3/2 E,/ | (E, A,3- | \
A,) A, G, F, | E,3 E, | E, E, E,3/2 E,/ | A,4- | A, |]
%
% --- BASS I: original bass, diatonic; enters bar 5 ---
[V:8] z3 | z4 | z4 | z4 | z4 | \
F,3 F, | F, F, F,3/2 C,/ | F,4- | \
F, F, F, E, | D,3 D, | D, A,, A,,3/2 C,/ | (C, G,3- | \
G,) G,, A,, B,, | A,,3 A, | B, B, B,3/2 B,/ | A,4- | \
A, F, F, E, | D,3 D, | D, A,, A,,3/2 C,/ | (C, G,3- | \
G,) G,, A,, B,, | C,3 C, | C, C, C,3/2 C,/ | F,4- | F, |]
